usr/share/icons/biglinux-icons-material-dark/symbolic/actions/find-location.svg

<!DOCTYPE svg>
<svg xmlns="http://www.w3.org/2000/svg" version="1.1" viewBox="0 0 16 16">
    <defs>
        <style id="current-color-scheme" type="text/css">
            .ColorScheme-Text {
                color:#dedede;
            }
        </style>
    </defs>
    <path style="fill:currentColor; fill-opacity:1; stroke:none" class="ColorScheme-Text" d="M 4.5 2 C 3.11929 2 2 3.11929 2 4.5 L 2 10.5 C 2 11.8807 3.11929 13 4.5 13 L 10 13 L 10 12 L 4.5 12 C 3.67157 12 3 11.3284 3 10.5 C 3 9.67157 3.67157 9 4.5 9 L 5 9 L 5 5 L 12 5 L 12 10 L 13 10 L 13 4 L 5 4 L 5 2 L 4.5 2 Z M 4 3.08789 L 4 8.05078 C 3.63721 8.12586 3.29564 8.28063 3 8.50391 L 3 4.5 C 3.00089 3.8651 3.40141 3.29952 4 3.08789 Z"/>
    <path style="fill:currentColor; fill-opacity:1; stroke:none" class="ColorScheme-Text" d="M 8.5 6 C 7.11929 6 6 7.11929 6 8.5 C 6 9.88071 7.11929 11 8.5 11 C 8.98983 10.9992 9.46864 10.8546 9.87695 10.584 L 12.293 13 L 13 12.293 L 10.584 9.87695 C 10.8546 9.46864 10.9992 8.98983 11 8.5 C 11 7.11929 9.88071 6 8.5 6 Z M 8.5 7 C 9.32843 7 10 7.67157 10 8.5 C 10 9.32843 9.32843 10 8.5 10 C 7.67157 10 7 9.32843 7 8.5 C 7 7.67157 7.67157 7 8.5 7 Z"/>
</svg>

<svg xmlns="http://www.w3.org/2000/svg" viewBox="0 0 16 16">
<defs>
<style id="current-color-scheme" type="text/css">
.ColorScheme-Contrast{color:#dedede}
</style>
</defs>
<path d="M4.5 2A2.5 2.5 0 0 0 2 4.5v6A2.5 2.5 0 0 0 4.5 13H10v-1H4.5a1.5 1.5 0 0 1 0-3H5V5h7v5h1V4H5V2zM4 3.088V8.05a2.5 2.5 0 0 0-1 .453V4.5a1.5 1.5 0 0 1 1-1.412" class="ColorScheme-Contrast" style="fill:currentColor;fill-opacity:1;stroke:none"/>
<path d="M8.5 6a2.5 2.5 0 1 0 1.377 4.584L12.293 13l.707-.707-2.416-2.416A2.5 2.5 0 0 0 8.5 6m0 1a1.5 1.5 0 1 1 0 3 1.5 1.5 0 0 1 0-3" class="ColorScheme-Contrast" style="fill:currentColor;fill-opacity:1;stroke:none"/>
</svg>
